X:1
T:Title
%%score ( 1 2 ) ( 3 4 )
L:1/8
Q:1/4=107
M:4/4
K:Eb
V:1 treble nm="Grand Piano, Soprano"
V:2 treble 
V:3 bass nm="Choir Pad, The Lost Are Coming Home"
V:4 bass 
V:1
 E2 [EG]2- [EG][EF]EF | [EG][FA] [GB]2 [Ac]2 [GB]2 | [Ge]2 [Ge]2 [Ac]2 [GB]2 | [EG]2 [DF]6 | %4
w: By~John~Robson~Sweney * * * * *||||
 [DB]2 [EG]2- [EG][EF]EF | [EG][FA] [GB]2 [Ac]2 [GB]2 | [Ge]2 [Ge]2 [EB]2 [DA]2 | [DF]2 E6 | %8
w: ||||
 [EB]2 [EB]G- [EG-][E-G]/E/ [GB]2- | [GB]2 [Ac]e- [Ae-][A-e]/A/ [Ge]2- | %10
w: ||
 [Ge][Ac] [GB]2 [EG]2 [B,F]2 | [CE]2 [DB]6 | [Fc][Ad] [Ge]2- [Ge][Ge][Ge][Bd] | %13
w: |||
 [Ac][GB] [Ac]2 [GB]2 [EG]2 | E2 [DF]2 [DB]2 [DA][DF]- | [DF]2 E6- | E2 z2 z4 |] %17
w: ||||
V:2
 x8 | x8 | x8 | x8 | x8 | x8 | x8 | x8 | z2 z E z4 | z2 z A z4 | x8 | x8 | x8 | x8 | x8 | x8 | %16
 x8 |] %17
V:3
 [E,G,]2 [E,B,]2- [E,B,][E,A,]G,A, | [E,B,]2 [E,E]2 [E,E]2 [E,E]2 | %2
 [E,B,]2 [E,B,]2 [E,E]2 [E,B,]2 | [E,B,]2 [B,,B,]6 | [B,,B,]2 [E,B,]2- [E,B,][E,A,]G,A, | %5
 [E,B,]2 [E,E]2 [E,E]2 [E,E]2 | [E,B,]2 [E,B,]2 [E,G,]2 [B,,F,]2 | [B,,A,]2 [E,G,]6 | %8
 [E,G,]2 [E,G,][E,G,] [E,B,][E,B,] [E,E]2- | [E,E]2 [A,E][A,C] [A,C][A,C] [E,B,]2- | %10
 [E,B,][E,E] [E,E]2 [E,B,]2 [D,B,]2 | [C,=A,]2 [B,,B,]6 | .A,2 z2 z4 | %13
 [E,E]2 [E,E]2 [E,E]2 [E,B,]2 | [G,B,]2 B,2 [B,,F,]2 [B,,F,][B,,A,]- | [B,,A,]2 [E,G,]6- | %16
 [E,G,]2 z2 z4 |] %17
V:4
 z4 z2 E,2 | x8 | x8 | x8 | z4 z2 E,2 | x8 | x8 | x8 | x8 | x8 | x8 | x8 | %12
 B,-[F,B,] [E,B,]2- [E,B,][E,B,] [E,B,]2 | x8 | x8 | x8 | x8 |] %17

